Papirus/64x64/apps/org.kde.merkuro.contact.svg

<!-- Created with Inkscape (http://www.inkscape.org/) -->
<svg width="64" height="64" version="1.1" viewBox="0 0 64 64" xmlns="http://www.w3.org/2000/svg">
 <rect x="4" y="5" width="56" height="56" ry="10" style="opacity:.2"/>
 <rect x="4" y="4" width="56" height="56" ry="10" style="fill:#4bae4f"/>
 <path d="m32 15c-4.4192 0-8 3.5824-8 8s3.5808 8 8 8 8-3.5824 8-8-3.5808-8-8-8zm0 20.000002c-13.9986 0.0084-14 8.861538-14 8.861538v3.6s2.584598 5.53846 14 5.53846 14-5.53846 14-5.53846v-3.6s0-8.867076-13.9972-8.861538z" style="opacity:.2"/>
 <path d="m32 14c-4.4192 0-8 3.5824-8 8s3.5808 8 8 8 8-3.5824 8-8-3.5808-8-8-8zm0 20.000002c-13.9986 0.0084-14 8.861538-14 8.861538v3.6s2.584598 5.53846 14 5.53846 14-5.53846 14-5.53846v-3.6s0-8.867076-13.9972-8.861538z" style="fill:#ffffff"/>
 <path d="m14 4c-5.5399945 0-10 4.4600055-10 10v1c0-5.5399945 4.4600055-10 10-10h36c5.539994 0 10 4.4600055 10 10v-1c0-5.5399945-4.460006-10-10-10h-36z" style="fill:#ffffff;opacity:.2"/>
</svg>

<svg xmlns="http://www.w3.org/2000/svg" width="64" height="64" version="1.1">
 <rect style="opacity:0.2" width="56" height="56" x="4" y="5" ry="10"/>
 <rect style="fill:#4bae4f" width="56" height="56" x="4" y="4" ry="10"/>
 <path style="fill:#ffffff;opacity:0.2" d="M 14 4 C 8.46 4 4 8.46 4 14 L 4 15 C 4 9.46 8.46 5 14 5 L 50 5 C 55.54 5 60 9.46 60 15 L 60 14 C 60 8.46 55.54 4 50 4 L 14 4 z"/>
 <path style="opacity:0.2" d="M 40,23 A 8,8 0 0 1 32,31 8,8 0 0 1 24,23 8,8 0 0 1 32,15 8,8 0 0 1 40,23 Z M 32,35 C 18,35.01 18,43.86 18,43.86 V 47.46 C 18,47.46 20.59,53 32,53 43.41,53 46,47.46 46,47.46 V 43.86 C 46,43.86 46,34.99 32,35 Z"/>
 <path style="fill:#ffffff" d="M 40,22 A 8,8 0 0 1 32,30 8,8 0 0 1 24,22 8,8 0 0 1 32,14 8,8 0 0 1 40,22 Z M 32,34 C 18,34.01 18,42.86 18,42.86 V 46.46 C 18,46.46 20.59,52 32,52 43.41,52 46,46.46 46,46.46 V 42.86 C 46,42.86 46,33.99 32,34 Z"/>
</svg>
